packages/tokens/icons/restApi/size32Px.svg

<svg viewBox="0 0 32 32" fill="none" xmlns="http://www.w3.org/2000/svg" width="1em" height="1em"><path d="M22.2957 3.5L9.84233 3.5C9.02848 3.5 8.28136 3.95009 7.90094 4.66956L2.53546 14.817C2.19994 15.4516 2.1957 16.21 2.52411 16.8483L7.90637 27.3087C8.28276 28.0402 9.03644 28.5 9.85911 28.5L22.279 28.5C23.1093 28.5 23.8685 28.0318 24.2413 27.2899L29.4977 16.8293C29.8133 16.2013 29.8092 15.4602 29.4867 14.8357L24.247 4.68849C23.8701 3.95853 23.1172 3.5 22.2957 3.5Z" stroke="currentColor"/><path d="M13.5295 8.33301H12.3592C11.323 8.33301 10.483 9.17304 10.483 10.2093V14.0651C10.483 14.7604 10.0645 15.3874 9.42241 15.6541V15.6541C9.21552 15.7401 9.21552 16.0331 9.42241 16.1191V16.1191C10.0645 16.3858 10.483 17.0128 10.483 17.7081V21.8631C10.483 22.8993 11.323 23.7393 12.3592 23.7393H13.5295" stroke="currentColor" stroke-linecap="round" stroke-linejoin="round"/><path d="M18.4708 8.33301H19.641C20.6772 8.33301 21.5173 9.17304 21.5173 10.2093V14.0651C21.5173 14.7604 21.9357 15.3874 22.5778 15.6541V15.6541C22.7847 15.7401 22.7847 16.0331 22.5778 16.1191V16.1191C21.9357 16.3858 21.5173 17.0128 21.5173 17.7081L21.5173 21.8631C21.5173 22.8993 20.6772 23.7393 19.641 23.7393H18.4708" stroke="currentColor" stroke-linecap="round" stroke-linejoin="round"/></svg>

<svg xmlns="http://www.w3.org/2000/svg" fill="none" viewBox="0 0 32 32" width="1em" height="1em"><path stroke="currentColor" d="M22.296 3.5H9.842c-.814 0-1.56.45-1.941 1.17L2.535 14.817a2.196 2.196 0 0 0-.01 2.031l5.381 10.46A2.196 2.196 0 0 0 9.86 28.5h12.42c.83 0 1.59-.468 1.962-1.21l5.257-10.46a2.196 2.196 0 0 0-.011-1.994l-5.24-10.148A2.196 2.196 0 0 0 22.296 3.5Z"/><path stroke="currentColor" stroke-linecap="round" stroke-linejoin="round" d="M13.53 8.333h-1.17c-1.037 0-1.877.84-1.877 1.876v3.856a1.72 1.72 0 0 1-1.06 1.59v0a.252.252 0 0 0 0 .464v0a1.72 1.72 0 0 1 1.06 1.59v4.154c0 1.036.84 1.876 1.876 1.876h1.17M18.47 8.333h1.171c1.036 0 1.876.84 1.876 1.876v3.856a1.72 1.72 0 0 0 1.06 1.59v0a.252.252 0 0 1 0 .464v0a1.72 1.72 0 0 0-1.06 1.59v4.154c0 1.036-.84 1.876-1.876 1.876h-1.17"/></svg>
